src/listing-views.svg

<svg xmlns="http://www.w3.org/2000/svg" class="dibsvg-svg dibsvg-listing-views" viewBox="0 0 100 100">
    <path d="M59.1024307,40.4680903 C56.2568596,39.3481954 53.3335604,38.7243948 50.6173033,38.7243948 C47.3929029,38.7243948 44.071347,39.3695288 40.9094986,40.5987077 C40.2739392,41.9713574 39.9398837,43.4760057 39.9398837,45.0333954 C39.9398837,50.7518361 44.4607139,55.3872129 50.0371351,55.3872129 C55.6132683,55.3872129 60.1331759,50.7521314 60.1331759,45.0333954 C60.1331759,43.4249997 59.7772885,41.8726481 59.1024307,40.4680903 Z M63.5745044,42.6811576 C63.7008802,43.4520588 63.7652807,44.2383049 63.7652807,45.0333954 C63.7652807,52.8089993 57.6192815,59.1116077 50.0371351,59.1116077 C42.4548149,59.1116077 36.3077788,52.808821 36.3077788,45.0333954 C36.3077788,44.2696505 36.3672507,43.5141243 36.484078,42.7723814 C32.9529762,44.9006294 29.8281912,47.8242928 27.5508562,51.4384577 C27.7820603,51.6530265 28.0322272,51.8786879 28.3008702,52.1137826 C29.7584147,53.3893083 31.4413245,54.6677179 33.322518,55.8606336 C38.6678727,59.2502678 44.5004005,61.2756052 50.6173033,61.2756052 C56.7193006,61.2756052 62.3148521,59.2613489 67.2862347,55.8910519 C69.0336245,54.7064272 70.5750859,53.4371856 71.8924526,52.1714024 C72.1474558,51.9263843 72.3831562,51.6918138 72.59918,51.4696197 C70.5273208,47.9504038 67.2701847,44.9092916 63.5745044,42.6811576 Z M50,100 C22.3857625,100 0,77.6142375 0,50 C0,22.3857625 22.3857625,0 50,0 C77.6142375,0 100,22.3857625 100,50 C100,77.6142375 77.6142375,100 50,100 Z M50,96 C75.4050985,96 96,75.4050985 96,50 C96,24.5949015 75.4050985,4 50,4 C24.5949015,4 4,24.5949015 4,50 C4,75.4050985 24.5949015,96 50,96 Z M76.4465535,50.899862 L77,52.0040867 L76.2187976,52.9526087 C75.8820009,53.3615414 75.2631706,54.0366302 74.3759409,54.889119 C72.9157879,56.2920975 71.2161065,57.6916175 69.2893574,58.997837 C63.7632003,62.7442377 57.4967514,65 50.6173033,65 C43.7538201,65 37.28963,62.7553187 31.4121592,59.0282553 C29.3653636,57.7303268 27.5350917,56.3399747 25.9430396,54.9467388 C24.9774779,54.1017568 24.2975608,53.4342709 23.9261797,53.0330234 L23,52.0323603 L23.6637702,50.8323535 C29.2452454,40.7418009 40.3154352,35 50.6173033,35 C60.2423001,35 71.7718609,41.5730153 76.4465535,50.899862 Z"/>
</svg>

<svg xmlns="http://www.w3.org/2000/svg" class="dibsvg-svg dibsvg-listing-views" viewBox="0 0 100 100">
    <path d="M59.102 40.468c-2.845-1.12-5.768-1.744-8.485-1.744-3.224 0-6.546.646-9.708 1.875a10.525 10.525 0 0 0-.97 4.434c0 5.719 4.522 10.354 10.098 10.354 5.576 0 10.096-4.635 10.096-10.354 0-1.608-.356-3.16-1.03-4.565zm4.473 2.213c.126.771.19 1.557.19 2.352 0 7.776-6.146 14.079-13.728 14.079s-13.73-6.303-13.73-14.079c0-.763.06-1.519.177-2.26-3.531 2.128-6.656 5.051-8.933 8.665.231.215.481.44.75.676a40.958 40.958 0 0 0 5.022 3.747c5.345 3.39 11.177 5.415 17.294 5.415 6.102 0 11.698-2.015 16.67-5.385a35.073 35.073 0 0 0 4.605-3.72c.255-.245.491-.48.707-.701-2.072-3.52-5.329-6.56-9.024-8.789zM50 100C22.386 100 0 77.614 0 50S22.386 0 50 0s50 22.386 50 50-22.386 50-50 50zm0-4c25.405 0 46-20.595 46-46S75.405 4 50 4 4 24.595 4 50s20.595 46 46 46zm26.447-45.1L77 52.004l-.781.949c-.337.409-.956 1.084-1.843 1.936a38.701 38.701 0 0 1-5.087 4.109C63.763 62.744 57.497 65 50.617 65c-6.863 0-13.327-2.245-19.205-5.972a44.576 44.576 0 0 1-5.469-4.081c-.966-.845-1.645-1.513-2.017-1.914l-.926-1 .664-1.2C29.245 40.741 40.315 35 50.617 35c9.625 0 21.155 6.573 25.83 15.9z"/>
</svg>
